X: 1
T:Croeso Gwraig y Ty 
M:6/8  
L:1/8 
Z:jig  
K:D
                                     |:ded cBA|BcB AGF|GAG FED|E3 E3|FEF DEF|A^GA Bcd|cBA DA^G|A3 A3:|:cBA ABc|d3 F3|GFG BAG|G3 F3|ABA GAG| FGF E2A|FED CDE|D3 D3:|
